svg/fluentui-system-icons/ic_fluent_gauge_32_regular.svg

<svg width="32" height="32" viewBox="0 0 32 32" fill="none" xmlns="http://www.w3.org/2000/svg">
<path d="M22.9619 21.8686C23.1174 21.9619 23.2954 22.0112 23.4767 22.0112C23.6406 22.0109 23.802 21.9704 23.9465 21.8931C24.0911 21.8159 24.2144 21.7043 24.3057 21.5682C25.3562 19.9998 25.9418 18.1664 25.9949 16.2795C26.048 14.3925 25.5664 12.5291 24.6057 10.9042C24.4703 10.6761 24.2499 10.5111 23.9929 10.4456C23.7358 10.38 23.4633 10.4193 23.2352 10.5547C23.0071 10.6901 22.8422 10.9105 22.7766 11.1675C22.7111 11.4245 22.7503 11.6971 22.8857 11.9252C23.6538 13.2246 24.0389 14.7147 23.9966 16.2236C23.9543 17.7325 23.4864 19.1987 22.6467 20.4532C22.5455 20.6037 22.4872 20.7788 22.4779 20.9599C22.4686 21.1411 22.5087 21.3213 22.594 21.4813C22.6793 21.6414 22.8064 21.7752 22.9619 21.8686ZM8.53772 22.032C8.37392 22.0322 8.21256 21.9923 8.06784 21.9155C7.92311 21.8388 7.79945 21.7277 7.70772 21.592C6.69292 20.0875 6.10665 18.3353 6.01174 16.523C5.91682 14.7108 6.31685 12.9068 7.16895 11.3046C8.02104 9.70233 9.29308 8.36216 10.8487 7.42769C12.4044 6.49323 14.185 5.9997 15.9997 6C16.654 5.99986 17.3068 6.06349 17.9487 6.19C18.0777 6.21528 18.2005 6.26575 18.31 6.33853C18.4195 6.41131 18.5135 6.50496 18.5868 6.61412C18.66 6.72329 18.7111 6.84583 18.7369 6.97473C18.7628 7.10363 18.7629 7.23637 18.7374 7.36534C18.7119 7.49431 18.6612 7.61698 18.5883 7.72634C18.5153 7.8357 18.4215 7.9296 18.3122 8.00267C18.2029 8.07574 18.0803 8.12653 17.9513 8.15216C17.8224 8.17778 17.6896 8.17773 17.5607 8.152C16.4006 7.92265 15.204 7.95311 14.057 8.2412C12.91 8.52928 11.841 9.06784 10.9269 9.81817C10.0128 10.5685 9.27623 11.512 8.77012 12.5808C8.264 13.6497 8.0009 14.8174 7.99972 16C7.99663 17.5942 8.47253 19.1525 9.36572 20.473C9.46709 20.6234 9.52567 20.7985 9.53518 20.9795C9.54469 21.1606 9.50478 21.3409 9.41972 21.5011C9.33466 21.6612 9.20765 21.7952 9.05229 21.8887C8.89693 21.9823 8.71906 22.0318 8.53772 22.032ZM21.5175 7.87563C21.3271 7.87213 21.1414 7.9349 20.9922 8.0532L19.9362 8.8952C19.2982 9.4022 18.4422 10.0872 17.5682 10.7952C16.6942 11.5032 15.7982 12.2322 15.0832 12.8322C14.7262 13.1312 14.4102 13.4002 14.1632 13.6182C13.9656 13.7867 13.7776 13.9664 13.6002 14.1562C13.1759 14.6528 12.9662 15.2977 13.0173 15.9489C13.0684 16.6001 13.3761 17.2044 13.8727 17.6287C14.3694 18.053 15.0142 18.2627 15.6654 18.2116C16.3167 18.1605 16.9209 17.8528 17.3452 17.3562C17.5053 17.1517 17.6532 16.938 17.7882 16.7162C17.9642 16.4382 18.1812 16.0842 18.4202 15.6842C18.8992 14.8842 19.4812 13.8862 20.0432 12.9112C20.6052 11.9362 21.1512 10.9842 21.5512 10.2752L22.0352 9.4222L22.2172 9.1002C22.3109 8.93441 22.344 8.74124 22.3109 8.55374C22.2778 8.36625 22.1805 8.19609 22.0358 8.07238C21.891 7.94868 21.7078 7.87913 21.5175 7.87563ZM16 2C8.26801 2 2 8.26801 2 16C2 23.732 8.26801 30 16 30C23.732 30 30 23.732 30 16C30 8.26801 23.732 2 16 2ZM4 16C4 9.37258 9.37258 4 16 4C22.6274 4 28 9.37258 28 16C28 22.6274 22.6274 28 16 28C9.37258 28 4 22.6274 4 16Z" fill="#212121"/>
</svg>

<svg xmlns="http://www.w3.org/2000/svg" width="32" height="32"><path d="M22.962 21.869a1 1 0 0 0 1.344-.3 10.01 10.01 0 0 0 .3-10.665 1 1 0 1 0-1.72 1.021 8.006 8.006 0 0 1-.24 8.528 1 1 0 0 0 .316 1.416Zm-14.424.163a1 1 0 0 1-.83-.44A10 10 0 0 1 17.948 6.19a1 1 0 1 1-.387 1.962A8.008 8.008 0 0 0 8 16a7.956 7.956 0 0 0 1.366 4.473 1 1 0 0 1-.828 1.559Zm12.98-14.156a.821.821 0 0 0-.526.177l-1.056.842c-.638.507-1.494 1.192-2.368 1.9-.874.708-1.77 1.437-2.485 2.037-.357.3-.673.568-.92.786a6.891 6.891 0 0 0-.563.538 2.463 2.463 0 0 0 3.745 3.2 6.63 6.63 0 0 0 .443-.64c.176-.278.393-.632.632-1.032.48-.8 1.061-1.798 1.623-2.773.562-.975 1.108-1.927 1.508-2.636l.484-.853.182-.322a.82.82 0 0 0-.7-1.224ZM16 2C8.268 2 2 8.268 2 16s6.268 14 14 14 14-6.268 14-14S23.732 2 16 2ZM4 16C4 9.373 9.373 4 16 4s12 5.373 12 12-5.373 12-12 12S4 22.627 4 16Z"/></svg>
